img/icons/icon-call.svg

<svg width="19" height="19" viewBox="0 0 19 19" fill="none" xmlns="http://www.w3.org/2000/svg">
<path d="M9.77429 8.22389C9.77429 8.41289 9.92792 8.56139 10.1157 8.56139C10.5048 8.56139 10.8189 8.87526 10.8189 9.25664C10.8189 9.44226 10.9725 9.59414 11.1603 9.59414C11.348 9.59414 11.5017 9.44226 11.5017 9.25664C11.5017 8.50064 10.8804 7.88639 10.1157 7.88639C9.92792 7.88639 9.77429 8.03827 9.77429 8.22389ZM15.332 9.59414C15.5231 9.59414 15.6733 9.44226 15.6733 9.25664C15.6733 6.22589 13.1813 3.76215 10.1157 3.76215C9.92792 3.76215 9.77429 3.914 9.77429 4.09965C9.77429 4.28527 9.92792 4.43715 10.1157 4.43715C12.8057 4.43715 14.9906 6.60051 14.9906 9.25664C14.9906 9.44226 15.1442 9.59414 15.332 9.59414Z" fill="#161C35"/>
<path d="M12.9047 9.25661C12.9047 9.44223 13.0583 9.59411 13.2461 9.59411C13.4339 9.59411 13.5875 9.44223 13.5875 9.25661C13.5875 7.36324 12.0308 5.82424 10.1157 5.82424C9.9279 5.82424 9.77427 5.97612 9.77427 6.16174C9.77427 6.35074 9.9279 6.49924 10.1157 6.49924C11.6553 6.49924 12.9047 7.73786 12.9047 9.25661ZM10.1157 1.69998C9.9279 1.69998 9.77427 1.85186 9.77427 2.03748C9.77427 2.22312 9.9279 2.37498 10.1157 2.37498C13.9562 2.37498 17.0798 5.46312 17.0798 9.25661C17.0798 9.44223 17.23 9.59411 17.4212 9.59411C17.6089 9.59411 17.7626 9.44223 17.7626 9.25661C17.7626 5.0885 14.3317 1.69998 10.1157 1.69998ZM13.4509 12.8139L13.0037 13.0535C12.2493 13.4619 11.6622 14.5812 10.7312 13.7375L8.30011 11.3L6.20004 9.25661C5.14495 7.92348 6.32635 7.60623 6.73941 6.85699L6.98179 6.41825C7.25489 5.91873 7.35388 5.35849 7.27196 4.79823C7.19345 4.23799 6.93741 3.72836 6.52775 3.32336C6.02935 2.83062 5.36707 2.56062 4.66042 2.56062C3.95376 2.56062 3.28807 2.83062 2.78964 3.32336L2.61556 3.49886C1.69383 4.41012 1.588 5.97948 2.31514 7.92348C3.0013 9.77973 4.3839 11.7912 6.20004 13.5867C8.96862 16.3239 12.0513 17.9 14.2634 17.9C15.1373 17.9 15.8781 17.6536 16.4039 17.1339L16.5814 16.9584C17.0764 16.469 17.3529 15.8142 17.3563 15.1089C17.3529 14.4204 17.0695 13.7454 16.5814 13.2627C15.7587 12.4494 14.4717 12.2671 13.4509 12.8139Z" fill="#161C35"/>
</svg>

<svg width="19" height="19" fill="none" xmlns="http://www.w3.org/2000/svg"><path d="M9.774 8.224c0 .189.154.337.342.337a.7.7 0 01.703.696.34.34 0 00.341.337.34.34 0 00.342-.337 1.38 1.38 0 00-1.386-1.37.34.34 0 00-.342.337zm5.558 1.37a.338.338 0 00.341-.337c0-3.031-2.492-5.495-5.557-5.495a.34.34 0 00-.342.338.34.34 0 00.342.337c2.69 0 4.875 2.164 4.875 4.82a.34.34 0 00.341.337z" fill="#161C35"/><path d="M12.905 9.257a.34.34 0 00.341.337.34.34 0 00.341-.337c0-1.894-1.556-3.433-3.471-3.433a.34.34 0 00-.342.338c0 .189.154.337.342.337 1.54 0 2.789 1.239 2.789 2.758zM10.115 1.7a.34.34 0 00-.34.337.34.34 0 00.34.338c3.841 0 6.965 3.088 6.965 6.882 0 .185.15.337.341.337a.34.34 0 00.342-.337c0-4.168-3.431-7.557-7.647-7.557zm3.336 11.114l-.447.24c-.755.408-1.342 1.527-2.273.684L8.301 11.3 6.2 9.257c-1.055-1.334.126-1.65.54-2.4l.242-.439c.273-.5.372-1.06.29-1.62a2.557 2.557 0 00-.744-1.475 2.636 2.636 0 00-1.868-.762c-.706 0-1.372.27-1.87.762l-.174.176c-.922.911-1.028 2.48-.3 4.424C3 9.78 4.383 11.791 6.2 13.587c2.769 2.737 5.851 4.313 8.063 4.313.874 0 1.615-.246 2.14-.766l.178-.176a2.595 2.595 0 00.775-1.85 2.636 2.636 0 00-.775-1.845 2.683 2.683 0 00-3.13-.45z" fill="#161C35"/></svg>
